X: 3093
T: Bear Dance, The
R: polka
M: 2/4
K: Eminor
BE E2|BE E>F|GG FE|"A,"A3 G/A/|
BB AA|GG F2|E/F/G "D"FD|"Em"E2 E2||
E/F/G E/F/G|"D"FD D2|"Em"E/F/G E/F/G|"A,"A3 G/A/|
BBAA|GG F>F|EG "D"F/E/ D|"Em"E2 E2||

